X:1
T:Title
%%score { 1 | 2 }
L:1/8
M:6/4
K:D
V:1 treble nm="Grand Piano"
V:2 bass 
V:1
 z6 z4[Q:1/4=138] D2 | F3 =F ^F2 G2 F2 G2 | A6- A4 D2 | B3 ^A B2 [Bd]2 [Ac]2 [GB]2 | %4
[M:5/4] [FA]2- [FA]2- [FA]6 |[M:1/4] F2 |[M:6/4] G3 F G2 [CE]4 [GB]2 | %7
 [FA]3 [=F^G] [^FA]2 [DF]4 [Fd]2 | c3 B c2 d2 c2 B2 |[M:5/4] [CA]2- [CA]2- [CA]6 |[M:1/4] [GA]2 | %11
[M:6/4] [FA]3 [GB] [FA]2 F2 G2 A2 | B6- B4 d2 | c3 B A2 G2 A2 G2 |[M:5/4] F2- F2- F6 | %15
[M:1/4] [FA]2 |[M:6/4] [Fd]3 [Fc] [Fd]2 [Ae]2 [Ad]2 [Ac]2 | B6- B4 d2 | %18
 A3 B A2 [B,CG]2 [A,CF]2[K:bass] [G,CE]2 |[M:5/4] [F,A,D]2- [F,A,D]2- [F,A,D]6 |] %20
V:2
 z6 z4 [D,F,]2 | [D,A,D]3 [D,^G,D] [D,A,D]2 [E,A,C]2 [D,A,D]2 [E,A,C]2 | [F,A,D]6- [F,A,D]4 D,2 | %3
 [G,DG]3 [G,CG] [G,DG]2 [G,B,]2 [G,C]2[K:bass] [G,D]2 |[M:5/4] [D,D]2- [D,D]2- [D,D]6 | %5
[M:1/4] [D,A,D]2 |[M:6/4] [E,A,C]3 [D,A,=C] [E,A,^C]2 [A,,A,]4 [C,A,]2 | %7
 [D,A,]3 [D,B,] [D,A,]2 [D,A,]4 [D,A,]2 | [E,A,E]3 [E,A,D] [E,A,E]2 [E,^G,F]2 [E,G,E]2 [E,G,D]2 | %9
[M:5/4] [A,,A,]2- [A,,A,]2- [A,,A,]6 |[M:1/4] [A,,A,]2 | %11
[M:6/4] [D,A,]3 [D,A,] [D,A,]2 [D,A,D]2 [E,A,C]2 [F,A,D]2 | [G,D]6- [G,D]4 [G,B,G]2 | %13
 [A,EG]3 [A,DG] [A,CG]2[K:bass] [A,CE]2 [A,CE]2 [A,CE]2 |[M:5/4] [D,A,D]2- [D,A,D]2- [D,A,D]6 | %15
[M:1/4] [D,D]2 |[M:6/4] [D,D]3 [D,D] [D,D]2 [F,D]2 [F,D]2 [F,D]2 | [G,DG]6- [G,DG]4 [G,B,G]2 | %18
 [A,DF]3 [A,DG] [A,DF]2[K:bass] A,,2 A,,2 A,,2 |[M:5/4] D,2- D,2- D,6 |] %20

